X: 79
T:Cuckoo's Nest
% Nottingham Music Database
S:Emery Martin (Dunbar, PA) via S P Bayard, via EF
M:4/4
L:1/4
K:A
|:e2/3 f2/3g2/3 |"A"aa2A|"A"b2/3 a2/3 =g2/3 e e3/2f/2|"G"=gf gg|"D"a/2=g/2a/2f/2 d3/2f/2|
"A"ef/2=g/2 aa|"A"a/2b/2 a2/3=g2/3f2/3 e f2/3g2/3f2/3|\
"G"e/2d/2B/2A/2 =G/2A/2B/2d/2|"A"cA A:|
K:A
e-|"A"e/2c/2c/2c/2 A/2A/2c/2A/2|"A"A/2c/2B/2A/2 "G"=GB|\
"G"B/2d/2B/2A/2 B/2d/2B/2A/2|"G"B/2d/2B/2A/2 =GB|
"A"A/2B/2c/2d/2 ef/2=f/2|"D"a/2=g/2a/2f/2 dg/2f/2|\
"G"e/2d/2B/2A/2 =G/2A/2B/2d/2|"A"cA A:|


